X:1
T:Das dritte heilig Sacrament
T:André Vierendeels
T:Melody by Georg Vogler (1625) (Soprano voice)
T:Source : Catechismus---Würzburg---J.Volmari---1652. Editor : André Vierendeels (08/10/17).
T:Notes : Original clef : C1, other voices  supplied editorially Original note values have been halved Text Middle German 
T:Das dritte heilig Sacrament
T:©
T:©
C:André Vierendeels
Z:©
%%score [ 1 2 3 ]
L:1/8
Q:1/4=81
M:2/2
K:C
V:1 treble nm="Soprano" snm="S"
V:2 treble-8 nm="Tenor" snm="T"
V:3 bass nm="Bass" snm="B"
V:1
"^1)" G4 A2 G2 | c4 B4 | c2 A2 G4 | z4 G4 | E4 E4 | C4 F2 E2 | D4 C4 | z4 C4 | E4 F4 | G2 G2 A4 | %10
w: Das drit- te|hei- lig|Sa- cra- ment,|desz|zar- ten|fron- leich- samms|ge- nennt,|ein|Danck- sa-|gung und gu-|
w: Drey Ding dar-|bey be-|deu- tet seyn:|desz|Her- zen|Ley- den, Creutz|und Peyn.|Die|ge- gen-|wer- tig Gött-|
 B4 c4 | z4 c4 | B2 A2 G2 G2 | F4 E4 | D4 z4 | D4 E2 F2 | G2 E2 A4 | A4 G4 | z4 c4 | B2 A2 G2 c2 | %20
w: te Gab,|ein|Ge- mein- schafft Ge-|nad und|Haab,|ein Sa- cra-|ment Frie- dens|und Lieb,|gleich-|wol bringt es den|
w: lich Gnad,|so|die Seel speist. Das|dritt die|Saat|und Frucht die|in dem Him-|mel viel,|Gott|ausz Ver- heisz uns|
 B2 A2 !fermata!G4 |] %21
w: Käi- zern Krieg.|
w: ge- ben will.|
V:2
"^2)""^1)" B4 A2 B2 | e4 d4 | e2 f2 d4 | z4 d4 | c4 G4 | A4 A2 c2 | B4 c4 | z4 G4 | G4 d4 | %9
w: Das drit- te|hei- lig|Sa- cra- ment,|desz|zar- ten|fron- leich- samms|ge- nennt,|ein|Danck- sa-|
w: Sein Ma- te-|rey ist|Weit- zen- brot,|wie|Chri- stus|uns zu thun|ge- bott,|ausz|Wein- beh-|
 B2 B2 c4 | d4 e4 | z4 e4 | d2 f2 e2 B2 | A4 G4 | B4 z4 | A4 c2 c2 | B2 c2 c4 | d4 d4 | z4 e4 | %19
w: gung und gu-|te Gab,|ein|Ge- mein- schafft Ge-|nad und|Haab,|ein Sa- cra-|ment Frie- dens|und Lieb,|gleich-|
w: ren der Safft|ge- perst,|we-|nig Was- sers man|drun- der|läst,|be- deu- ten|bey der See-|len Speitz,|das|
 d2 f2 d2 e2 | d2 d2 !fermata!B4 |] %21
w: wol bringt es den|Käi- zern Krieg.|
w: Chri- stus sey auff|die- se Weisz.|
V:3
"^3)""^1)""^4)" G,4 D,2 G,2 | E,4 G,4 | C,2 D,2 G,,4 | z4 G,4 | C,4 E,4 | F,4 D,2 C,2 | G,4 C,4 | %7
w: Das drit- te|hei- lig|Sa- cra- ment,|desz|zar- ten|fron- leich- samms|ge- nennt,|
w: Und zwar die|con- se-|cra- ti- on,|stellt|uns erst-|lich Ma- ri-|ae Sohn|
 z4 E,4 | C,4 D,4 | G,2 G,2 F,4 | G,4 C,4 | z4 C,4 | G,2 F,2 C,2 G,2 | D,4 E,2 F,2 | G,4 z4 | %15
w: ein|Danck- sa-|gung und gu-|te Gab,|ein|Ge- mein- schafft Ge-|nad und _|Haab,|
w: mit|sei- nem|Leib und Blu-|te gantz:|so|bleibt durch da gar|kein Sub- *|stantz,|
 D,4 C,2 F,2 | G,2 C,2 F,4 | D,4 G,4 | z4 C,4 | G,2 D,2 G,2 C,2 | G,2 ^F,2 !fermata!G,4 |] %21
w: ein Sa- cra-|ment Frie- dens|und Lieb,|gleich-|wol bringt es den|Käi- zern Krieg.|
w: desz vor- ge-|meld- ten E-|le- ments,|le-|dig fleht da das|Ac- ci- dens.|

